Yaru++/actions/16/transform-scale.svg

<svg height="16" width="16" xmlns="http://www.w3.org/2000/svg"><g fill="#808080"><path d="m5.994 2c-1.258.015-2.179-.03-2.932.385-.3890093.2223004-.6858367.5762236-.837.998-.165.437-.225.96-.225 1.617v4h1v-4c0-.592.063-1.006.16-1.266.098-.26.201-.371.385-.472.365-.202 1.195-.247 2.455-.262h3v-1h-3.002zm3.006 0v1h1c1.258.015 2.087.06 2.453.262.183.1.29.212.387.472s.16.674.16 1.266v4h1v-4c0-.658-.06-1.179-.225-1.617-.151414-.4219369-.448615-.7758825-.838-.998-.752-.416-1.673-.37-2.931-.385h-.004zm-7 7v2c0 .658.06 1.179.225 1.617.164.439.461.79.837.998.753.416 1.674.37 2.932.385h3.006v-1h-3c-1.259-.015-2.09-.06-2.455-.262-.184-.1-.287-.212-.385-.472-.097-.26-.16-.674-.16-1.266v-2zm11 0v2c0 .592-.063 1.006-.16 1.266-.098.26-.202.371-.385.472-.366.202-1.197.247-2.455.262h-1v1h1.006c1.258-.015 2.179.03 2.932-.385.389009-.2223.685837-.576224.837-.998.165-.438.225-.96.225-1.617v-2z"/><path d="m6 4v1h1v-1zm3.0000001 0v1h.9999999v-1zm-5.0000001 2v1h1v-1zm7 0v1h1v-1zm-2.9999999 2v1 2 1h1 1.9999999 1v-1-3zm-4.0000001 1v.9999998h1v-.9999998zm5.0000001 0h1.9999999v2h-1.9999999zm-3.0000001 2v1h1v-1z"/></g></svg>

<svg xmlns="http://www.w3.org/2000/svg" width="16" height="16" version="1.1">
 <path d="M 5.994,2 C 4.736,2.015 3.815,1.97 3.062,2.385 2.6729907,2.6073004 2.3761633,2.9612236 2.225,3.383 2.06,3.82 2,4.343 2,5 V 9 H 3 V 5 C 3,4.408 3.063,3.994 3.16,3.734 3.258,3.474 3.361,3.363 3.545,3.262 3.91,3.06 4.74,3.015 6,3 H 9 V 2 H 5.998 Z M 9,2 v 1 h 1 c 1.258,0.015 2.087,0.06 2.453,0.262 0.183,0.1 0.29,0.212 0.387,0.472 C 12.937,3.994 13,4.408 13,5 v 4 h 1 V 5 C 14,4.342 13.94,3.821 13.775,3.383 13.623586,2.9610631 13.326385,2.6071175 12.937,2.385 12.185,1.969 11.264,2.015 10.006,2 H 10.002 Z M 2,9 v 2 c 0,0.658 0.06,1.179 0.225,1.617 0.164,0.439 0.461,0.79 0.837,0.998 0.753,0.416 1.674,0.37 2.932,0.385 H 9 V 13 H 6 C 4.741,12.985 3.91,12.94 3.545,12.738 3.361,12.638 3.258,12.526 3.16,12.266 3.063,12.006 3,11.592 3,11 V 9 Z m 11,0 v 2 c 0,0.592 -0.063,1.006 -0.16,1.266 -0.098,0.26 -0.202,0.371 -0.385,0.472 C 12.089,12.94 11.258,12.985 10,13 H 9 v 1 h 1.006 c 1.258,-0.015 2.179,0.03 2.932,-0.385 0.389009,-0.2223 0.685837,-0.576224 0.837,-0.998 C 13.94,12.179 14,11.657 14,11 V 9 Z" font-weight="400" overflow="visible" style="fill:#808080"/>
 <path style="fill:#808080" class="ColorScheme-Text" d="M 6,4 V 5 H 7 V 4 Z M 9.0000001,4 V 5 H 10 V 4 Z M 4,6 V 7 H 5 V 6 Z m 7,0 v 1 h 1 V 6 Z M 8.0000001,8 v 1 2 1 h 1 H 11 12 V 11 8 Z M 4,9 V 9.9999998 H 5 V 9 Z M 9.0000001,9 H 11 v 2 H 9.0000001 Z M 6,11 v 1 h 1 v -1 z"/>
</svg>
